svg/metalFrogHand.svg

<svg xmlns="http://www.w3.org/2000/svg" viewBox="0 0 22.42 33"><defs><style>.cls-1{fill:#5c913b;}.cls-2{fill:#77b255;}</style></defs><g id="Ebene_2" data-name="Ebene 2"><g id="Ebene_1-2" data-name="Ebene 1"><path class="cls-1" d="M11,29.62,2.85,22,4,14a2,2,0,0,1,1.18-1.82L9,13a2,2,0,0,1,1.18-1.82l3.72.8.1,0V3a2,2,0,0,1,1.18-1.82l3.61,13.66L19,15c.92,0,1.72,2,1.72,2h0Z"/><path class="cls-2" d="M9,15.78A3,3,0,0,0,8,18a3,3,0,0,0,.74,2A2,2,0,0,1,7,21a2,2,0,0,1-2-2V13a2,2,0,0,1,.18-.82A2,2,0,0,1,9,13Z"/><path class="cls-2" d="M0,5A2,2,0,0,1,4,5V19a3,3,0,0,0,5,2.22,3.48,3.48,0,0,0,.53-.62h0A2.2,2.2,0,0,0,11,21h2.54a8.77,8.77,0,0,0-3,7,.5.5,0,0,0,1,0c0-3.86,2.19-7,4.88-7,.71.08.84-1,.12-1H11a2,2,0,0,1,0-4h8a2,2,0,0,1,1.73,1,2.3,2.3,0,0,1,.18.4L22,21a10,10,0,0,1,.41,2.19C22.41,28,17.72,33,12,33A12,12,0,0,1,0,21S0,5,0,5Z"/><path class="cls-2" d="M14,15H11a3.05,3.05,0,0,0-1,.18V12a2,2,0,0,1,.18-.82A2,2,0,0,1,14,12Zm1,0V2a2,2,0,0,1,.18-.82A2,2,0,0,1,17,0a2,2,0,0,1,2,2V15Z"/></g></g></svg>

<?xml version="1.0" encoding="UTF-8" standalone="no"?>
<svg
   viewBox="0 0 33 33"
   version="1.1"
   id="svg16"
   sodipodi:docname="metalFrogHand.svg"
   width="33"
   height="33"
   inkscape:version="1.1.1 (3bf5ae0d25, 2021-09-20, custom)"
   xmlns:inkscape="http://www.inkscape.org/namespaces/inkscape"
   xmlns:sodipodi="http://sodipodi.sourceforge.net/DTD/sodipodi-0.dtd"
   xmlns="http://www.w3.org/2000/svg"
   xmlns:svg="http://www.w3.org/2000/svg">
  <sodipodi:namedview
     id="namedview18"
     pagecolor="#505050"
     bordercolor="#ffffff"
     borderopacity="1"
     inkscape:pageshadow="0"
     inkscape:pageopacity="0"
     inkscape:pagecheckerboard="1"
     showgrid="false"
     inkscape:zoom="13.5"
     inkscape:cx="8.9259259"
     inkscape:cy="21.444444"
     inkscape:window-width="1920"
     inkscape:window-height="1026"
     inkscape:window-x="0"
     inkscape:window-y="54"
     inkscape:window-maximized="1"
     inkscape:current-layer="svg16" />
  <defs
     id="defs4">
    <style
       id="style2">.cls-1{fill:#5c913b;}.cls-2{fill:#77b255;}</style>
  </defs>
  <g
     id="Ebene_2"
     data-name="Ebene 2"
     transform="translate(5.295)">
    <g
       id="Ebene_1-2"
       data-name="Ebene 1">
      <path
         class="cls-1"
         d="M 11,29.62 2.85,22 4,14 A 2,2 0 0 1 5.18,12.18 L 9,13 a 2,2 0 0 1 1.18,-1.82 l 3.72,0.8 H 14 V 3 A 2,2 0 0 1 15.18,1.18 L 18.79,14.84 19,15 c 0.92,0 1.72,2 1.72,2 v 0 z"
         id="path6" />
      <path
         class="cls-2"
         d="M 9,15.78 A 3,3 0 0 0 8,18 3,3 0 0 0 8.74,20 2,2 0 0 1 7,21 2,2 0 0 1 5,19 V 13 A 2,2 0 0 1 5.18,12.18 2,2 0 0 1 9,13 Z"
         id="path8" />
      <path
         class="cls-2"
         d="m 0,5 a 2,2 0 0 1 4,0 v 14 a 3,3 0 0 0 5,2.22 3.48,3.48 0 0 0 0.53,-0.62 v 0 A 2.2,2.2 0 0 0 11,21 h 2.54 a 8.77,8.77 0 0 0 -3,7 0.5,0.5 0 0 0 1,0 c 0,-3.86 2.19,-7 4.88,-7 0.71,0.08 0.84,-1 0.12,-1 H 11 a 2,2 0 0 1 0,-4 h 8 a 2,2 0 0 1 1.73,1 2.3,2.3 0 0 1 0.18,0.4 L 22,21 a 10,10 0 0 1 0.41,2.19 C 22.41,28 17.72,33 12,33 A 12,12 0 0 1 0,21 C 0,21 0,5 0,5 Z"
         id="path10" />
      <path
         class="cls-2"
         d="m 14,15 h -3 a 3.05,3.05 0 0 0 -1,0.18 V 12 A 2,2 0 0 1 10.18,11.18 2,2 0 0 1 14,12 Z m 1,0 V 2 A 2,2 0 0 1 15.18,1.18 2,2 0 0 1 17,0 2,2 0 0 1 19,2 v 13 z"
         id="path12" />
    </g>
  </g>
</svg>
